X:171
T: Die Mordeltern
N: Q0085M
O: Mitteleuropa, Deutschland (DDR) , Mecklenburg
R: Ballade, Habgier, Mord, Reue, Selbstmord
M: none
L: 1/16
K: G
B4 | G2G2F3GF2A2 | F2A2A8
c4 | A2F2D4c4 | B2A2G4z2
D2 | G3AB6A2 | G6E2E4
B4 | B4A2B2c2A2 | D3FG8

